;FLAVOR:Marlin
;TIME:12501
;Filament used: 9.12043m
;Layer height: 0.2
;MINX:69.968
;MINY:62.824
;MINZ:0.2
;MAXX:165.031
;MAXY:172.176
;MAXZ:10
;TARGET_MACHINE.NAME:Creality Ender-3
;Generated with Cura_SteamEngine 5.9.0
M140 S50
M105
M190 S50
M104 S200
M105
M109 S200
M82 ;absolute extrusion mode
; Ender 3 Custom Start G-code
G92 E0 ; Reset Extruder
G28 ; Home all axes
G1 Z2.0 F3000 ; Move Z Axis up little to prevent scratching of Heat Bed
G1 X0.1 Y20 Z0.3 F5000.0 ; Move to start position
G1 X0.1 Y200.0 Z0.3 F1500.0 E15 ; Draw the first line
G1 X0.4 Y200.0 Z0.3 F5000.0 ; Move to side a little
G1 X0.4 Y20 Z0.3 F1500.0 E30 ; Draw the second line
G92 E0 ; Reset Extruder
G1 Z2.0 F3000 ; Move Z Axis up little to prevent scratching of Heat Bed
G1 X5 Y20 Z0.3 F5000.0 ; Move over to prevent blob squish
G92 E0
G92 E0
G1 F2700 E-5
;LAYER_COUNT:50
;LAYER:0
M107
G0 F6000 X73.4 Y64.982 Z0.2
;TYPE:SKIRT
G1 F2700 E0
G1 F1200 X74.317 Y64.314 E0.03773
G1 X75.048 Y63.89 E0.06584
G1 X75.944 Y63.481 E0.0986
G1 X76.668 Y63.23 E0.12409
G1 X77.621 Y62.997 E0.15672
G1 X78.695 Y62.851 E0.19277
G1 X79.4 Y62.825 E0.21623
G1 X155.747 Y62.824 E2.75554
G1 X156.101 Y62.837 E2.76732
G1 X156.8 Y62.904 E2.79068
G1 X157.608 Y63.041 E2.81794
G1 X158.191 Y63.189 E2.83794
G1 X159.399 Y63.627 E2.88068
G1 X160.091 Y63.963 E2.90627
G1 X160.847 Y64.419 E2.93563
G1 X161.655 Y65.024 E2.9692
G1 X162.282 Y65.6 E2.99752
G1 X162.955 Y66.356 E3.03119
G1 X163.553 Y67.184 E3.06516
G1 X163.849 Y67.681 E3.0844
G1 X164.371 Y68.788 E3.1251
G1 X164.604 Y69.445 E3.14829
G1 X164.867 Y70.521 E3.18513
G1 X165.005 Y71.529 E3.21897
G1 X165.031 Y72.068 E3.23692
G1 X165.031 Y162.881 E6.25737
G1 X165.019 Y163.235 E6.26915
G1 X164.94 Y164.056 E6.29658
G1 X164.844 Y164.621 E6.31565
G1 X164.643 Y165.415 E6.34289
G1 X164.224 Y166.556 E6.38332
G1 X163.904 Y167.214 E6.40765
G1 X163.359 Y168.108 E6.44248
G1 X162.995 Y168.6 E6.46283
G1 X162.145 Y169.533 E6.50481
G1 X161.6 Y170.018 E6.52908
G1 X160.683 Y170.686 E6.56681
G1 X159.952 Y171.11 E6.59492
G1 X159.056 Y171.519 E6.62768
G1 X158.332 Y171.77 E6.65316
G1 X157.378 Y172.003 E6.68582
G1 X156.29 Y172.149 E6.72234
G1 X155.616 Y172.171 E6.74477
G1 X79.253 Y172.176 E9.28461
G1 X78.899 Y172.163 E9.29639
G1 X78.2 Y172.096 E9.31975
G1 X77.392 Y171.959 E9.347
G1 X76.809 Y171.811 E9.36701
G1 X75.606 Y171.375 E9.40957
G1 X75.084 Y171.127 E9.42879
G1 X74.006 Y170.475 E9.47069
G1 X73.244 Y169.89 E9.50264
G1 X72.738 Y169.422 E9.52557
G1 X72.1 Y168.715 E9.55724
G1 X71.533 Y167.946 E9.58902
G1 X71.095 Y167.211 E9.61748
G1 X70.613 Y166.173 E9.65554
G1 X70.396 Y165.555 E9.67733
G1 X70.133 Y164.478 E9.7142
G1 X69.995 Y163.449 E9.74873
G1 X69.969 Y162.744 E9.7722
G1 X69.968 Y72.109 E12.78673
G1 X69.981 Y71.755 E12.79851
G1 X70.06 Y70.944 E12.82561
G1 X70.156 Y70.379 E12.84467
G1 X70.357 Y69.585 E12.87192
G1 X70.776 Y68.444 E12.91234
G1 X71.096 Y67.786 E12.93668
G1 X71.641 Y66.892 E12.9715
G1 X72.005 Y66.4 E12.99186
G1 X72.855 Y65.467 E13.03384
G1 X73.4 Y64.982 E13.0581
G0 F6000 X74.519 Y64.66
G1 F1200 X75.215 Y64.254 E13.0849
G1 X76.076 Y63.859 E13.11641
G1 X76.763 Y63.619 E13.14061
G1 X77.716 Y63.386 E13.17324
G1 X78.71 Y63.251 E13.20661
G1 X79.4 Y63.225 E13.22957
G1 X155.732 Y63.224 E15.76839
G1 X156.086 Y63.237 E15.78017
G1 X156.762 Y63.302 E15.80276
G1 X157.51 Y63.429 E15.82799
G1 X158.093 Y63.577 E15.848
G1 X159.225 Y63.987 E15.88804
G1 X159.884 Y64.306 E15.91239
G1 X160.64 Y64.762 E15.94176
G1 X161.384 Y65.319 E15.97267
G1 X162.011 Y65.895 E16.00099
G1 X162.631 Y66.59 E16.03196
G1 X163.209 Y67.389 E16.06476
G1 X163.505 Y67.886 E16.084
G1 X164.009 Y68.958 E16.1234
G1 X164.215 Y69.54 E16.14394
G1 X164.478 Y70.616 E16.18078
G1 X164.605 Y71.548 E16.21206
G1 X164.631 Y72.087 E16.23001
G1 X164.631 Y162.867 E19.24937
G1 X164.619 Y163.221 E19.26115
G1 X164.542 Y164.017 E19.28774
G1 X164.456 Y164.523 E19.30482
G1 X164.255 Y165.317 E19.33206
G1 X163.864 Y166.381 E19.36976
G1 X163.544 Y167.039 E19.3941
G1 X163.037 Y167.87 E19.42647
G1 X162.673 Y168.362 E19.44683
G1 X161.878 Y169.235 E19.4861
G1 X161.364 Y169.695 E19.50904
G1 X160.481 Y170.34 E19.54541
G1 X159.785 Y170.746 E19.57221
G1 X158.924 Y171.141 E19.60372
G1 X158.237 Y171.381 E19.62792
G1 X157.283 Y171.614 E19.66059
G1 X156.277 Y171.749 E19.69435
G1 X155.616 Y171.771 E19.71634
G1 X79.268 Y171.776 E22.25569
G1 X78.914 Y171.763 E22.26747
G1 X78.238 Y171.698 E22.29006
G1 X77.49 Y171.571 E22.31529
G1 X76.907 Y171.423 E22.3353
G1 X75.778 Y171.014 E22.37524
G1 X75.256 Y170.766 E22.39446
G1 X74.249 Y170.158 E22.43358
G1 X73.516 Y169.596 E22.4643
G1 X73.01 Y169.128 E22.48723
G1 X72.397 Y168.447 E22.5177
G1 X71.877 Y167.741 E22.54687
G1 X71.439 Y167.006 E22.57532
G1 X70.99 Y166.039 E22.61078
G1 X70.785 Y165.46 E22.63121
G1 X70.522 Y164.383 E22.66809
G1 X70.395 Y163.434 E22.69993
G1 X70.369 Y162.744 E22.7229
G1 X70.368 Y72.124 E25.73693
G1 X70.381 Y71.77 E25.74871
G1 X70.458 Y70.983 E25.77501
G1 X70.544 Y70.477 E25.79208
G1 X70.745 Y69.683 E25.81933
G1 X71.136 Y68.619 E25.85703
G1 X71.456 Y67.961 E25.88136
G1 X71.963 Y67.13 E25.91374
G1 X72.327 Y66.638 E25.9341
G1 X73.122 Y65.765 E25.97337
G1 X73.636 Y65.305 E25.99631
G1 X74.519 Y64.66 E26.03268
G0 F6000 X75.417 Y64.6
G1 F1200 X76.209 Y64.236 E26.06167
G1 X76.858 Y64.008 E26.08455
G1 X77.811 Y63.775 E26.11718
G1 X78.725 Y63.651 E26.14786
G1 X79.4 Y63.625 E26.17033
G1 X155.717 Y63.624 E28.70864
G1 X156.071 Y63.637 E28.72042
G1 X156.724 Y63.7 E28.74224
G1 X157.412 Y63.817 E28.76545
G1 X157.995 Y63.965 E28.78546
G1 X159.051 Y64.347 E28.82281
G1 X159.677 Y64.649 E28.84593
G1 X160.433 Y65.105 E28.87529
G1 X161.113 Y65.614 E28.90354
G1 X161.74 Y66.19 E28.93186
G1 X162.332 Y66.856 E28.9615
G1 X162.865 Y67.594 E28.99178
G1 X163.161 Y68.091 E29.01102
G1 X163.632 Y69.093 E29.04784
G1 X163.826 Y69.635 E29.06699
G1 X164.089 Y70.711 E29.10383
G1 X164.205 Y71.567 E29.13256
G1 X164.231 Y72.106 E29.15051
G1 X164.231 Y162.853 E32.16877
G1 X164.219 Y163.207 E32.18055
G1 X164.144 Y163.978 E32.20631
G1 X164.068 Y164.425 E32.22139
G1 X163.867 Y165.219 E32.24863
G1 X163.504 Y166.206 E32.28361
G1 X163.184 Y166.864 E32.30795
G1 X162.715 Y167.632 E32.33788
G1 X162.351 Y168.124 E32.35823
G1 X161.611 Y168.937 E32.3948
G1 X161.127 Y169.372 E32.41644
G1 X160.279 Y169.994 E32.45142
G1 X159.583 Y170.4 E32.47822
G1 X158.791 Y170.764 E32.50721
G1 X158.142 Y170.992 E32.53009
G1 X157.188 Y171.225 E32.56275
G1 X156.263 Y171.349 E32.59379
G1 X155.616 Y171.371 E32.61533
G1 X79.283 Y171.376 E35.15417
G1 X78.929 Y171.363 E35.16595
G1 X78.276 Y171.3 E35.18777
G1 X77.588 Y171.183 E35.21098
G1 X77.005 Y171.035 E35.23099
G1 X75.95 Y170.653 E35.26831
G1 X75.428 Y170.405 E35.28753
G1 X74.492 Y169.84 E35.32389
G1 X73.788 Y169.302 E35.35336
G1 X73.282 Y168.834 E35.37629
G1 X72.695 Y168.18 E35.40552
G1 X72.221 Y167.536 E35.43211
G1 X71.783 Y166.801 E35.46057
G1 X71.367 Y165.904 E35.49346
G1 X71.174 Y165.365 E35.5125
G1 X70.911 Y164.288 E35.54937
G1 X70.795 Y163.419 E35.57853
G1 X70.769 Y162.744 E35.601
G1 X70.768 Y72.139 E38.61453
G1 X70.781 Y71.785 E38.62632
G1 X70.856 Y71.022 E38.65182
G1 X70.932 Y70.575 E38.6669
G1 X71.133 Y69.781 E38.69414
G1 X71.496 Y68.794 E38.72912
G1 X71.816 Y68.136 E38.75345
G1 X72.285 Y67.368 E38.78338
G1 X72.649 Y66.876 E38.80374
G1 X73.389 Y66.063 E38.8403
G1 X73.873 Y65.628 E38.86195
G1 X74.721 Y65.006 E38.89692
G1 X75.417 Y64.6 E38.92372
G0 F6000 X76.342 Y64.613
G1 F1200 X76.953 Y64.397 E38.94528
G1 X77.906 Y64.164 E38.97791
G1 X78.741 Y64.051 E39.00593
G1 X79.4 Y64.025 E39.02787
G1 X155.702 Y64.024 E41.56568
G1 X156.056 Y64.037 E41.57747
G1 X156.685 Y64.098 E41.59849
G1 X157.314 Y64.205 E41.61971
G1 X157.897 Y64.353 E41.63971
G1 X158.878 Y64.708 E41.67441
G1 X159.47 Y64.992 E41.69625
G1 X160.226 Y65.448 E41.72561
G1 X160.842 Y65.909 E41.75121
G1 X161.469 Y66.485 E41.77952
G1 X162.032 Y67.121 E41.80777
G1 X162.521 Y67.799 E41.83558
G1 X162.817 Y68.296 E41.85482
G1 X163.255 Y69.228 E41.88907
G1 X163.449 Y69.77 E41.90822
G1 X163.693 Y70.765 E41.94229
G1 X163.805 Y71.586 E41.96985
G1 X163.831 Y72.125 E41.9878
G1 X163.831 Y162.839 E45.00496
G1 X163.819 Y163.193 E45.01674
G1 X163.749 Y163.912 E45.04077
G1 X163.68 Y164.327 E45.05476
G1 X163.479 Y165.121 E45.082
G1 X163.144 Y166.031 E45.11425
G1 X162.824 Y166.689 E45.13859
G1 X162.393 Y167.394 E45.16607
G1 X162.029 Y167.886 E45.18643
G1 X161.344 Y168.639 E45.22028
G1 X160.86 Y169.074 E45.24193
G1 X160.077 Y169.648 E45.27422
G1 X159.381 Y170.054 E45.30102
G1 X158.658 Y170.387 E45.32749
G1 X158.047 Y170.603 E45.34905
G1 X157.093 Y170.836 E45.38171
G1 X156.249 Y170.949 E45.41003
G1 X155.616 Y170.971 E45.4311
G1 X79.298 Y170.976 E47.96945
G1 X78.944 Y170.963 E47.98123
G1 X78.315 Y170.902 E48.00225
G1 X77.686 Y170.795 E48.02347
G1 X77.103 Y170.647 E48.04347
G1 X76.122 Y170.292 E48.07817
G1 X75.6 Y170.044 E48.09739
G1 X74.699 Y169.498 E48.13244
G1 X74.06 Y169.008 E48.15922
G1 X73.554 Y168.54 E48.18214
G1 X72.993 Y167.913 E48.21013
G1 X72.565 Y167.331 E48.23415
G1 X72.127 Y166.596 E48.26261
G1 X71.744 Y165.769 E48.29292
G1 X71.551 Y165.23 E48.31197
G1 X71.307 Y164.235 E48.34604
G1 X71.195 Y163.403 E48.37396
G1 X71.169 Y162.744 E48.3959
G1 X71.168 Y72.154 E51.40893
G1 X71.181 Y71.8 E51.42072
G1 X71.251 Y71.088 E51.44451
G1 X71.32 Y70.673 E51.4585
G1 X71.521 Y69.879 E51.48574
G1 X71.856 Y68.969 E51.518
G1 X72.176 Y68.311 E51.54233
G1 X72.607 Y67.606 E51.56982
G1 X72.971 Y67.114 E51.59017
G1 X73.656 Y66.361 E51.62403
G1 X74.14 Y65.926 E51.64567
G1 X74.923 Y65.352 E51.67796
G1 X75.619 Y64.946 E51.70476
G1 X76.342 Y64.613 E51.73124
G0 F6000 X77.048 Y64.786
G1 F1200 X78.001 Y64.553 E51.76387
G1 X78.757 Y64.451 E51.78924
G1 X79.4 Y64.425 E51.81065
G1 X155.687 Y64.424 E54.34796
G1 X156.041 Y64.437 E54.35974
G1 X156.646 Y64.496 E54.37996
G1 X157.216 Y64.593 E54.39919
G1 X157.799 Y64.741 E54.4192
G1 X158.706 Y65.069 E54.45128
G1 X159.263 Y65.335 E54.47181
G1 X160.019 Y65.791 E54.50117
G1 X160.571 Y66.204 E54.5241
G1 X161.198 Y66.78 E54.55242
G1 X161.708 Y67.356 E54.57801
G1 X162.177 Y68.004 E54.60461
G1 X162.473 Y68.501 E54.62385
G1 X162.878 Y69.363 E54.65553
G1 X163.072 Y69.905 E54.67468
G1 X163.297 Y70.819 E54.70598
G1 X163.405 Y71.605 E54.73237
G1 X163.431 Y72.144 E54.75032
G1 X163.431 Y162.825 E57.76638
G1 X163.419 Y163.179 E57.77816
G1 X163.354 Y163.846 E57.80045
G1 X163.285 Y164.261 E57.81445
G1 X163.103 Y164.984 E57.83924
G1 X162.784 Y165.856 E57.87013
G1 X162.464 Y166.514 E57.89446
G1 X162.071 Y167.156 E57.9195
G1 X161.707 Y167.648 E57.93985
G1 X161.077 Y168.341 E57.971
G1 X160.593 Y168.776 E57.99265
G1 X159.875 Y169.303 E58.02227
G1 X159.213 Y169.691 E58.04779
G1 X158.523 Y170.01 E58.07308
G1 X157.952 Y170.214 E58.09324
G1 X156.998 Y170.447 E58.12591
G1 X156.235 Y170.549 E58.15151
G1 X155.616 Y170.571 E58.17211
G1 X79.313 Y170.576 E60.70996
G1 X78.959 Y170.563 E60.72174
G1 X78.354 Y170.504 E60.74196
G1 X77.784 Y170.407 E60.76119
G1 X77.201 Y170.259 E60.78119
G1 X76.294 Y169.931 E60.81327
G1 X75.772 Y169.683 E60.83249
G1 X74.942 Y169.18 E60.86477
G1 X74.332 Y168.714 E60.89031
G1 X73.826 Y168.246 E60.91323
G1 X73.292 Y167.647 E60.93992
G1 X72.909 Y167.126 E60.96143
G1 X72.471 Y166.391 E60.98988
G1 X72.121 Y165.634 E61.01762
G1 X71.928 Y165.095 E61.03667
G1 X71.703 Y164.181 E61.06797
G1 X71.595 Y163.387 E61.09462
G1 X71.569 Y162.744 E61.11603
G1 X71.568 Y72.169 E64.12857
G1 X71.581 Y71.815 E64.14035
G1 X71.646 Y71.154 E64.16244
G1 X71.715 Y70.739 E64.17643
G1 X71.897 Y70.016 E64.20123
G1 X72.216 Y69.144 E64.23211
G1 X72.536 Y68.486 E64.25645
G1 X72.929 Y67.844 E64.28148
G1 X73.293 Y67.352 E64.30184
G1 X73.923 Y66.659 E64.33299
G1 X74.407 Y66.224 E64.35463
G1 X75.125 Y65.697 E64.38426
G1 X75.787 Y65.309 E64.40978
G1 X76.477 Y64.99 E64.43506
G1 X77.048 Y64.786 E64.45523
G0 F6000 X78.055 Y64.949
G1 F1200 X78.774 Y64.851 E64.47936
G1 X79.4 Y64.825 E64.5002
G1 X155.672 Y64.824 E67.03702
G1 X156.026 Y64.837 E67.0488
G1 X156.607 Y64.894 E67.06822
G1 X157.118 Y64.981 E67.08546
G1 X157.701 Y65.129 E67.10546
G1 X158.534 Y65.43 E67.13492
G1 X159.056 Y65.678 E67.15414
G1 X159.812 Y66.134 E67.18351
G1 X160.33 Y66.524 E67.20507
G1 X160.899 Y67.046 E67.23076
G1 X161.384 Y67.591 E67.25502
G1 X161.833 Y68.209 E67.28043
G1 X162.129 Y68.706 E67.29967
G1 X162.501 Y69.498 E67.32877
G1 X162.695 Y70.04 E67.34792
G1 X162.901 Y70.874 E67.37649
G1 X163.005 Y71.624 E67.40168
G1 X163.031 Y72.163 E67.41962
G1 X163.031 Y162.811 E70.43459
G1 X163.019 Y163.165 E70.44637
G1 X162.959 Y163.78 E70.46692
G1 X162.89 Y164.195 E70.48091
G1 X162.727 Y164.847 E70.50327
G1 X162.424 Y165.681 E70.53278
G1 X162.104 Y166.339 E70.55712
G1 X161.749 Y166.918 E70.5797
G1 X161.385 Y167.41 E70.60006
G1 X160.81 Y168.043 E70.6285
G1 X160.326 Y168.478 E70.65015
G1 X159.673 Y168.958 E70.6771
G1 X159.011 Y169.346 E70.70262
G1 X158.388 Y169.633 E70.72544
G1 X157.817 Y169.837 E70.74561
G1 X156.944 Y170.051 E70.7755
G1 X156.22 Y170.149 E70.7998
G1 X155.616 Y170.171 E70.8199
G1 X79.328 Y170.176 E73.35725
G1 X78.974 Y170.163 E73.36903
G1 X78.393 Y170.106 E73.38845
G1 X77.882 Y170.019 E73.40569
G1 X77.299 Y169.871 E73.4257
G1 X76.466 Y169.57 E73.45516
G1 X75.944 Y169.322 E73.47438
G1 X75.184 Y168.862 E73.50393
G1 X74.604 Y168.42 E73.52818
G1 X74.098 Y167.952 E73.5511
G1 X73.614 Y167.409 E73.5753
G1 X73.253 Y166.921 E73.59549
G1 X72.815 Y166.186 E73.62394
G1 X72.498 Y165.499 E73.64911
G1 X72.305 Y164.96 E73.66815
G1 X72.099 Y164.126 E73.69672
G1 X71.995 Y163.37 E73.72211
G1 X71.969 Y162.744 E73.74294
G1 X71.968 Y72.184 E76.75498
G1 X71.981 Y71.83 E76.76676
G1 X72.041 Y71.22 E76.78715
G1 X72.11 Y70.805 E76.80114
G1 X72.273 Y70.153 E76.8235
G1 X72.576 Y69.319 E76.85301
G1 X72.896 Y68.661 E76.87735
G1 X73.251 Y68.082 E76.89993
G1 X73.615 Y67.59 E76.92029
G1 X74.19 Y66.957 E76.94873
G1 X74.674 Y66.522 E76.97038
G1 X75.327 Y66.042 E76.99733
G1 X75.989 Y65.654 E77.02285
G1 X76.612 Y65.367 E77.04567
G1 X77.183 Y65.163 E77.06583
G1 X78.055 Y64.949 E77.0957
G0 F6000 X79.4 Y65.225
G1 F1200 X155.657 Y65.224 E79.63202
G1 X156.011 Y65.237 E79.6438
G1 X156.568 Y65.292 E79.66241
G1 X157.02 Y65.369 E79.67766
G1 X157.603 Y65.517 E79.69767
G1 X158.362 Y65.791 E79.72451
G1 X158.884 Y66.039 E79.74373
G1 X159.571 Y66.454 E79.77043
G1 X160.089 Y66.844 E79.79199
G1 X160.601 Y67.313 E79.81509
G1 X161.061 Y67.827 E79.83803
G1 X161.489 Y68.414 E79.86219
G1 X161.785 Y68.911 E79.88143
G1 X162.124 Y69.633 E79.90796
G1 X162.318 Y70.175 E79.92711
G1 X162.505 Y70.929 E79.95294
G1 X162.605 Y71.643 E79.97692
G1 X162.631 Y72.182 E79.99487
G1 X162.631 Y162.797 E83.00874
G1 X162.619 Y163.151 E83.02052
G1 X162.564 Y163.714 E83.03933
G1 X162.495 Y164.129 E83.05333
G1 X162.351 Y164.711 E83.07327
G1 X162.064 Y165.507 E83.10141
G1 X161.763 Y166.13 E83.12442
G1 X161.427 Y166.68 E83.14586
G1 X161.063 Y167.172 E83.16622
G1 X160.543 Y167.745 E83.19195
G1 X160.059 Y168.18 E83.2136
G1 X159.437 Y168.635 E83.23923
G1 X158.843 Y168.983 E83.26213
G1 X158.253 Y169.256 E83.28375
G1 X157.682 Y169.46 E83.30392
G1 X156.89 Y169.655 E83.33104
G1 X156.205 Y169.749 E83.35404
G1 X155.616 Y169.771 E83.37364
G1 X79.343 Y169.776 E85.91049
G1 X78.989 Y169.763 E85.92228
G1 X78.432 Y169.708 E85.94089
G1 X77.98 Y169.631 E85.95614
G1 X77.397 Y169.483 E85.97615
G1 X76.638 Y169.209 E86.00299
G1 X76.116 Y168.961 E86.02221
G1 X75.426 Y168.544 E86.04902
G1 X74.876 Y168.126 E86.072
G1 X74.37 Y167.658 E86.09493
G1 X73.936 Y167.171 E86.11662
G1 X73.575 Y166.683 E86.13681
G1 X73.178 Y166.018 E86.16257
G1 X72.875 Y165.364 E86.18654
G1 X72.682 Y164.825 E86.20559
G1 X72.495 Y164.071 E86.23142
G1 X72.395 Y163.353 E86.25554
G1 X72.369 Y162.744 E86.27581
G1 X72.368 Y72.199 E89.28735
G1 X72.381 Y71.845 E89.29913
G1 X72.436 Y71.286 E89.31781
G1 X72.505 Y70.871 E89.3318
G1 X72.649 Y70.289 E89.35175
G1 X72.936 Y69.493 E89.37989
G1 X73.237 Y68.87 E89.4029
G1 X73.573 Y68.32 E89.42434
G1 X73.937 Y67.828 E89.44469
G1 X74.457 Y67.255 E89.47043
G1 X74.941 Y66.82 E89.49207
G1 X75.563 Y66.365 E89.51771
G1 X76.157 Y66.017 E89.5406
G1 X76.747 Y65.744 E89.56223
G1 X77.318 Y65.54 E89.58239
G1 X78.11 Y65.345 E89.60952
G1 X78.791 Y65.251 E89.63239
G1 X79.4 Y65.225 E89.65266
