;FLAVOR:Marlin
;TIME:7672
;Filament used: 3.98418m
;Layer height: 0.2
;MINX:73.087
;MINY:75.45
;MINZ:0.2
;MAXX:161.913
;MAXY:159.532
;MAXZ:5
;TARGET_MACHINE.NAME:Creality Ender-3
;POSTPROCESSED
;  [PauseAtHeight]
;Generated with Cura_SteamEngine 5.9.0
M140 S50
M105
M190 S50
M104 S200
M105
M109 S200
M82 ;absolute extrusion mode
; Ender 3 Custom Start G-code
G92 E0 ; Reset Extruder
G28 ; Home all axes
G1 Z2.0 F3000 ; Move Z Axis up little to prevent scratching of Heat Bed
G1 X0.1 Y20 Z0.3 F5000.0 ; Move to start position
G1 X0.1 Y200.0 Z0.3 F1500.0 E15 ; Draw the first line
G1 X0.4 Y200.0 Z0.3 F5000.0 ; Move to side a little
G1 X0.4 Y20 Z0.3 F1500.0 E30 ; Draw the second line
G92 E0 ; Reset Extruder
G1 Z2.0 F3000 ; Move Z Axis up little to prevent scratching of Heat Bed
G1 X5 Y20 Z0.3 F5000.0 ; Move over to prevent blob squish
G92 E0
G92 E0
G1 F2700 E-5
;LAYER_COUNT:25
;LAYER:0
M107
G0 F6000 X75.429 Y76.817 Z0.2
;TYPE:SKIRT
G1 F2700 E0
G1 F1200 X76.657 Y76.05 E0.04816
G1 X78.01 Y75.579 E0.09581
G1 X79.401 Y75.45 E0.14227
G1 X156 Y75.469 E2.68996
G1 X157.008 Y75.58 E2.72369
G1 X158.357 Y76.051 E2.77121
G1 X159.566 Y76.812 E2.81873
G1 X160.566 Y77.812 E2.86577
G1 X161.319 Y79.017 E2.91303
G1 X161.803 Y80.391 E2.96148
G1 X161.913 Y81.389 E2.99487
G1 X161.91 Y153.663 E5.39872
G1 X161.804 Y154.606 E5.43028
G1 X161.318 Y155.985 E5.47891
G1 X160.567 Y157.187 E5.52605
G1 X159.566 Y158.188 E5.57313
G1 X158.357 Y158.949 E5.62065
G1 X157.008 Y159.42 E5.66817
G1 X155.99 Y159.532 E5.70223
G1 X79 Y159.531 E8.26293
G1 X77.992 Y159.42 E8.29666
G1 X76.643 Y158.949 E8.34419
G1 X75.434 Y158.188 E8.3917
G1 X74.434 Y157.188 E8.43874
G1 X73.681 Y155.983 E8.486
G1 X73.197 Y154.609 E8.53445
G1 X73.087 Y153.611 E8.56784
G1 X73.089 Y81.349 E10.97129
G1 X73.196 Y80.394 E11.00325
G1 X73.682 Y79.015 E11.05188
G1 X74.433 Y77.813 E11.09902
G1 X75.429 Y76.817 E11.14587
G0 F6000 X76.83 Y76.413
G1 F1200 X78.097 Y75.972 E11.19049
G1 X79.401 Y75.85 E11.23405
G1 X155.956 Y75.867 E13.78028
G1 X156.919 Y75.973 E13.8125
G1 X158.182 Y76.414 E13.857
G1 X159.315 Y77.127 E13.90152
G1 X160.252 Y78.064 E13.9456
G1 X160.957 Y79.192 E13.98984
G1 X161.411 Y80.481 E14.03529
G1 X161.513 Y81.389 E14.06568
G1 X161.512 Y153.618 E16.46803
G1 X161.411 Y154.519 E16.49818
G1 X160.956 Y155.81 E16.54371
G1 X160.253 Y156.935 E16.58783
G1 X159.315 Y157.873 E16.63195
G1 X158.182 Y158.586 E16.67648
G1 X156.919 Y159.027 E16.72097
G1 X155.946 Y159.134 E16.75353
G1 X79.044 Y159.133 E19.3113
G1 X78.081 Y159.027 E19.34352
G1 X76.818 Y158.586 E19.38802
G1 X75.685 Y157.873 E19.43254
G1 X74.748 Y156.936 E19.47662
G1 X74.043 Y155.808 E19.52086
G1 X73.589 Y154.519 E19.56631
G1 X73.487 Y153.611 E19.5967
G1 X73.487 Y81.393 E21.99868
G1 X73.589 Y80.481 E22.02921
G1 X74.044 Y79.19 E22.07473
G1 X74.747 Y78.065 E22.11886
G1 X75.681 Y77.131 E22.16279
G1 X76.83 Y76.413 E22.20785
G0 F6000 X78.184 Y76.365
G1 F1200 X79.401 Y76.25 E22.24851
G1 X155.912 Y76.265 E24.79328
G1 X156.83 Y76.366 E24.82399
G1 X158.007 Y76.777 E24.86546
G1 X159.064 Y77.442 E24.90699
G1 X159.938 Y78.316 E24.9481
G1 X160.595 Y79.367 E24.98933
G1 X161.018 Y80.568 E25.03168
G1 X161.115 Y81.434 E25.06066
G1 X161.114 Y153.574 E27.46005
G1 X161.018 Y154.432 E27.48876
G1 X160.594 Y155.635 E27.53119
G1 X159.939 Y156.683 E27.57229
G1 X159.064 Y157.558 E27.61345
G1 X158.007 Y158.223 E27.65499
G1 X156.83 Y158.634 E27.69645
G1 X155.902 Y158.736 E27.7275
G1 X79.088 Y158.735 E30.28235
G1 X78.17 Y158.634 E30.31306
G1 X76.993 Y158.223 E30.35453
G1 X75.936 Y157.558 E30.39606
G1 X75.062 Y156.684 E30.43717
G1 X74.405 Y155.633 E30.4784
G1 X73.982 Y154.432 E30.52075
G1 X73.885 Y153.566 E30.54973
G1 X73.885 Y81.437 E32.94875
G1 X73.982 Y80.568 E32.97783
G1 X74.406 Y79.365 E33.02026
G1 X75.061 Y78.317 E33.06136
G1 X75.933 Y77.445 E33.10238
G1 X77.003 Y76.776 E33.14435
G1 X78.184 Y76.365 E33.18594
G0 F6000 X79.401 Y76.65
G1 F1200 X155.868 Y76.663 E35.72925
G1 X156.741 Y76.759 E35.75846
G1 X157.832 Y77.14 E35.79689
G1 X158.813 Y77.757 E35.83544
G1 X159.624 Y78.568 E35.87358
G1 X160.233 Y79.542 E35.91179
G1 X160.625 Y80.655 E35.95104
G1 X160.717 Y81.478 E35.97858
G1 X160.716 Y153.53 E38.37504
G1 X160.625 Y154.345 E38.40232
G1 X160.232 Y155.46 E38.44164
G1 X159.625 Y156.431 E38.47972
G1 X158.813 Y157.243 E38.51792
G1 X157.832 Y157.86 E38.55646
G1 X156.741 Y158.241 E38.5949
G1 X155.858 Y158.338 E38.62445
G1 X79.132 Y158.337 E41.17636
G1 X78.259 Y158.241 E41.20557
G1 X77.168 Y157.86 E41.24401
G1 X76.187 Y157.243 E41.28255
G1 X75.376 Y156.432 E41.3207
G1 X74.767 Y155.458 E41.35891
G1 X74.375 Y154.345 E41.39816
G1 X74.283 Y153.522 E41.4257
G1 X74.283 Y81.481 E43.82179
G1 X74.375 Y80.655 E43.84944
G1 X74.768 Y79.54 E43.88876
G1 X75.375 Y78.569 E43.92684
G1 X76.185 Y77.759 E43.96494
G1 X77.176 Y77.139 E44.00382
G1 X78.271 Y76.758 E44.04238
G1 X79.401 Y76.65 E44.08014
G0 F6000 X79.401 Y77.05
G1 F1200 X155.824 Y77.061 E46.62198
G1 X156.652 Y77.152 E46.64968
G1 X157.661 Y77.504 E46.68523
G1 X158.56 Y78.07 E46.72056
G1 X159.31 Y78.82 E46.75584
G1 X159.871 Y79.717 E46.79103
G1 X160.232 Y80.742 E46.82717
G1 X160.319 Y81.522 E46.85328
G1 X160.318 Y153.486 E49.24681
G1 X160.232 Y154.258 E49.27264
G1 X159.87 Y155.285 E49.30886
G1 X159.311 Y156.179 E49.34393
G1 X158.56 Y156.93 E49.37925
G1 X157.661 Y157.496 E49.41459
G1 X156.652 Y157.848 E49.45013
G1 X155.814 Y157.94 E49.47817
G1 X79.176 Y157.939 E52.02716
G1 X78.348 Y157.848 E52.05487
G1 X77.339 Y157.496 E52.09041
G1 X76.44 Y156.93 E52.12574
G1 X75.69 Y156.18 E52.16102
G1 X75.129 Y155.283 E52.19621
G1 X74.768 Y154.258 E52.23235
G1 X74.681 Y153.478 E52.25846
G1 X74.681 Y81.525 E54.65162
G1 X74.768 Y80.742 E54.67783
G1 X75.13 Y79.715 E54.71404
G1 X75.689 Y78.821 E54.74911
G1 X76.437 Y78.073 E54.7843
G1 X77.349 Y77.502 E54.82008
G1 X78.358 Y77.151 E54.85562
G1 X79.401 Y77.05 E54.89047
G0 F6000 X79.401 Y77.45
G1 F1200 X155.78 Y77.459 E57.43085
G1 X156.563 Y77.545 E57.45704
G1 X157.486 Y77.867 E57.48956
G1 X158.309 Y78.385 E57.5219
G1 X158.996 Y79.072 E57.55422
G1 X159.509 Y79.892 E57.58639
G1 X159.839 Y80.829 E57.61943
G1 X159.921 Y81.566 E57.64409
G1 X159.92 Y153.442 E60.0347
G1 X159.839 Y154.171 E60.05909
G1 X159.508 Y155.11 E60.09221
G1 X158.997 Y155.927 E60.12426
G1 X158.309 Y156.615 E60.15662
G1 X157.486 Y157.133 E60.18896
G1 X156.563 Y157.455 E60.22148
G1 X155.77 Y157.542 E60.24801
G1 X79.22 Y157.541 E62.79407
G1 X78.437 Y157.455 E62.82027
G1 X77.514 Y157.133 E62.85279
G1 X76.691 Y156.615 E62.88513
G1 X76.004 Y155.928 E62.91745
G1 X75.491 Y155.108 E62.94962
G1 X75.161 Y154.171 E62.98266
G1 X75.079 Y153.434 E63.00732
G1 X75.079 Y81.569 E65.39756
G1 X75.161 Y80.829 E65.42232
G1 X75.492 Y79.89 E65.45544
G1 X76.003 Y79.073 E65.48749
G1 X76.689 Y78.387 E65.51976
G1 X77.521 Y77.866 E65.55241
G1 X78.446 Y77.544 E65.58498
G1 X79.401 Y77.45 E65.6169
G0 F6000 X79.401 Y77.85
G1 F1200 X155.736 Y77.857 E68.15581
G1 X156.474 Y77.938 E68.18051
G1 X157.311 Y78.23 E68.20999
G1 X158.058 Y78.7 E68.23935
G1 X158.682 Y79.324 E68.2687
G1 X159.147 Y80.067 E68.29785
G1 X159.446 Y80.916 E68.32779
G1 X159.523 Y81.61 E68.35101
G1 X159.522 Y153.398 E70.73869
G1 X159.446 Y154.084 E70.76165
G1 X159.146 Y154.935 E70.79166
G1 X158.683 Y155.675 E70.82069
G1 X158.058 Y156.3 E70.85009
G1 X157.311 Y156.77 E70.87944
G1 X156.474 Y157.062 E70.90893
G1 X155.726 Y157.144 E70.93395
G1 X79.264 Y157.143 E73.47709
G1 X78.526 Y157.062 E73.50178
G1 X77.689 Y156.77 E73.53127
G1 X76.942 Y156.3 E73.56062
G1 X76.318 Y155.676 E73.58997
G1 X75.853 Y154.933 E73.61913
G1 X75.554 Y154.084 E73.64906
G1 X75.477 Y153.39 E73.67229
G1 X75.477 Y81.613 E76.0596
G1 X75.554 Y80.916 E76.08292
G1 X75.854 Y80.065 E76.11294
G1 X76.317 Y79.325 E76.14197
G1 X76.941 Y78.701 E76.17132
G1 X77.694 Y78.229 E76.20088
G1 X78.533 Y77.937 E76.23043
G1 X79.401 Y77.85 E76.25944
G0 F6000 X79.401 Y78.25
G1 F1200 X155.692 Y78.255 E78.79689
G1 X156.385 Y78.331 E78.82008
G1 X157.136 Y78.593 E78.84653
G1 X157.807 Y79.015 E78.8729
G1 X158.368 Y79.576 E78.89928
G1 X158.785 Y80.242 E78.92542
G1 X159.053 Y81.003 E78.95225
G1 X159.125 Y81.654 E78.97404
G1 X159.124 Y153.354 E81.35879
G1 X159.053 Y153.997 E81.38031
G1 X158.784 Y154.76 E81.40721
G1 X158.369 Y155.423 E81.43323
G1 X157.807 Y155.985 E81.45966
G1 X157.136 Y156.407 E81.48603
G1 X156.385 Y156.669 E81.51248
G1 X155.682 Y156.746 E81.536
G1 X79.308 Y156.745 E84.07621
G1 X78.615 Y156.669 E84.0994
G1 X77.864 Y156.407 E84.12586
G1 X77.193 Y155.985 E84.15222
G1 X76.632 Y155.424 E84.17861
G1 X76.215 Y154.758 E84.20474
G1 X75.947 Y153.997 E84.23158
G1 X75.875 Y153.346 E84.25336
G1 X75.875 Y81.657 E86.63775
G1 X75.947 Y81.003 E86.65963
G1 X76.216 Y80.24 E86.68654
G1 X76.631 Y79.577 E86.71256
G1 X77.193 Y79.015 E86.73899
G1 X77.866 Y78.593 E86.76541
G1 X78.621 Y78.33 E86.792
G1 X79.401 Y78.25 E86.81808
G0 F6000 X79.401 Y79.05
G1 F1200 X155.648 Y79.053 E89.35407
G1 X156.204 Y79.116 E89.37268
G1 X156.786 Y79.319 E89.39318
G1 X157.305 Y79.645 E89.41356
G1 X157.74 Y80.08 E89.43402
G1 X158.061 Y80.592 E89.45412
G1 X158.267 Y81.177 E89.47475
G1 X158.329 Y81.742 E89.49366
G1 X158.328 Y153.266 E91.87255
G1 X158.267 Y153.823 E91.89119
G1 X158.061 Y154.408 E91.91182
G1 X157.739 Y154.921 E91.93196
G1 X157.305 Y155.355 E91.95238
G1 X156.786 Y155.681 E91.97276
G1 X156.204 Y155.884 E91.99326
G1 X155.638 Y155.948 E92.01221
G1 X79.352 Y155.947 E94.54949
G1 X78.796 Y155.884 E94.5681
G1 X78.214 Y155.681 E94.5886
G1 X77.695 Y155.355 E94.60899
G1 X77.26 Y154.92 E94.62945
G1 X76.939 Y154.408 E94.64955
G1 X76.733 Y153.823 E94.67018
G1 X76.671 Y153.258 E94.68908
G1 X76.671 Y81.744 E97.06765
G1 X76.733 Y81.177 E97.08662
G1 X76.939 Y80.592 E97.10725
G1 X77.261 Y80.079 E97.12739
G1 X77.695 Y79.645 E97.14781
G1 X78.214 Y79.319 E97.16819
G1 X78.797 Y79.116 E97.18872
G1 X79.401 Y79.05 E97.20893
G0 F6000 X79.401 Y78.65
G1 F1200 X155.648 Y78.653 E99.74492
G1 X156.296 Y78.724 E99.7666
G1 X156.961 Y78.956 E99.79003
G1 X157.556 Y79.33 E99.8134
G1 X158.054 Y79.828 E99.83682
G1 X158.423 Y80.417 E99.85994
G1 X158.66 Y81.09 E99.88367
G1 X158.727 Y81.698 E99.90402
G1 X158.726 Y153.31 E102.28584
G1 X158.66 Y153.91 E102.30592
G1 X158.422 Y154.585 E102.32972
G1 X158.055 Y155.171 E102.35272
G1 X157.556 Y155.67 E102.37619
G1 X156.961 Y156.044 E102.39957
G1 X156.296 Y156.276 E102.42299
G1 X155.638 Y156.348 E102.44501
G1 X79.352 Y156.347 E104.98229
G1 X78.704 Y156.276 E105.00397
G1 X78.039 Y156.044 E105.0274
G1 X77.444 Y155.67 E105.05077
G1 X76.946 Y155.172 E105.0742
G1 X76.577 Y154.583 E105.09731
G1 X76.34 Y153.91 E105.12105
G1 X76.273 Y153.302 E105.14139
G1 X76.273 Y81.701 E107.52285
G1 X76.34 Y81.09 E107.54329
G1 X76.578 Y80.415 E107.5671
G1 X76.945 Y79.829 E107.5901
G1 X77.444 Y79.33 E107.61357
G1 X78.04 Y78.956 E107.63697
G1 X78.709 Y78.723 E107.66053
G1 X79.401 Y78.65 E107.68368
G1 F2700 E102.68368
G0 F6000 X98.678 Y98.499
G1 F2700 E107.68368
G1 F1200 X98.653 Y98.564 E107.68599
G1 X98.627 Y98.602 E107.68752
G1 X98.58 Y98.644 E107.68962
G1 X98.539 Y98.666 E107.69117
G1 X98.475 Y98.681 E107.69335
G1 X98.425 Y98.682 E107.69502
G1 X98.364 Y98.667 E107.69711
G1 X98.32 Y98.644 E107.69876
G1 X98.273 Y98.602 E107.70085
G1 X98.244 Y98.559 E107.70258
G1 X98.222 Y98.503 E107.70458
G1 X98.216 Y98.45 E107.70635
G1 X98.222 Y98.398 E107.7081
G1 X98.245 Y98.339 E107.7102
G1 X98.275 Y98.296 E107.71195
G1 X98.319 Y98.256 E107.71392
G1 X98.362 Y98.234 E107.71553
G1 X98.424 Y98.219 E107.71765
G1 X98.478 Y98.219 E107.71945
G1 X98.535 Y98.233 E107.7214
G1 X98.583 Y98.258 E107.7232
G1 X98.624 Y98.294 E107.72501
G1 X98.66 Y98.346 E107.72712
G1 X98.675 Y98.388 E107.7286
G1 X98.683 Y98.453 E107.73078
G1 X98.678 Y98.499 E107.73232
G0 F6000 X98.81 Y98.975
G1 F1200 X98.679 Y99.044 E107.73724
G1 X98.525 Y99.081 E107.74251
G1 X98.375 Y99.082 E107.7475
G1 X98.225 Y99.045 E107.75264
G1 X98.091 Y98.975 E107.75767
G1 X97.973 Y98.87 E107.76292
G1 X97.884 Y98.743 E107.76808
G1 X97.831 Y98.601 E107.77312
G1 X97.813 Y98.452 E107.77811
G1 X97.832 Y98.298 E107.78327
G1 X97.885 Y98.157 E107.78828
G1 X97.975 Y98.028 E107.79351
G1 X98.087 Y97.927 E107.79853
G1 X98.22 Y97.858 E107.80351
G1 X98.376 Y97.819 E107.80886
G1 X98.528 Y97.819 E107.81392
G1 X98.675 Y97.855 E107.81895
G1 X98.809 Y97.925 E107.82398
G1 X98.926 Y98.028 E107.82916
G1 X99.017 Y98.158 E107.83444
G1 X99.066 Y98.289 E107.83909
G1 X99.086 Y98.45 E107.84449
G1 X99.069 Y98.598 E107.84944
G1 X99.011 Y98.749 E107.85482
G1 X98.929 Y98.869 E107.85966
G1 X98.81 Y98.975 E107.86496
G0 F6000 X99.04 Y99.306
G1 F1200 X98.825 Y99.419 E107.87304
G1 X98.572 Y99.481 E107.8817
G1 X98.33 Y99.482 E107.88975
G1 X98.077 Y99.42 E107.89841
G1 X97.864 Y99.308 E107.90642
G1 X97.67 Y99.136 E107.91504
G1 X97.53 Y98.936 E107.92316
G1 X97.44 Y98.694 E107.93175
G1 X97.41 Y98.453 E107.93983
G1 X97.441 Y98.202 E107.94824
G1 X97.527 Y97.972 E107.9564
G1 X97.675 Y97.759 E107.96503
G1 X97.858 Y97.595 E107.9732
G1 X98.08 Y97.479 E107.98154
G1 X98.323 Y97.419 E107.98986
G1 X98.574 Y97.419 E107.99821
G1 X98.82 Y97.479 E108.00663
G1 X99.04 Y97.595 E108.0149
G1 X99.226 Y97.758 E108.02313
G1 X99.371 Y97.968 E108.03162
G1 X99.458 Y98.196 E108.03973
G1 X99.489 Y98.451 E108.04828
G1 X99.46 Y98.695 E108.05645
G1 X99.368 Y98.935 E108.065
G1 X99.231 Y99.136 E108.07309
G1 X99.04 Y99.306 E108.08159
G0 F6000 X98.966 Y99.797
G1 F1200 X98.622 Y99.881 E108.09337
G1 X98.28 Y99.882 E108.10475
G1 X97.937 Y99.798 E108.11649
G1 X97.636 Y99.64 E108.1278
G1 X97.368 Y99.402 E108.13972
G1 X97.172 Y99.121 E108.15111
G1 X97.049 Y98.793 E108.16277
G1 X97.007 Y98.453 E108.17416
G1 X97.049 Y98.107 E108.18575
G1 X97.173 Y97.78 E108.19738
G1 X97.369 Y97.497 E108.20883
G1 X97.632 Y97.262 E108.22056
G1 X97.935 Y97.104 E108.23193
G1 X98.276 Y97.019 E108.24362
G1 X98.625 Y97.019 E108.25523
G1 X98.96 Y97.101 E108.2667
G1 X99.27 Y97.264 E108.27835
G1 X99.527 Y97.49 E108.28973
G1 X99.728 Y97.781 E108.30149
G1 X99.849 Y98.097 E108.31275
G1 X99.891 Y98.45 E108.32457
G1 X99.851 Y98.792 E108.33602
G1 X99.725 Y99.122 E108.34777
G1 X99.533 Y99.403 E108.35909
G1 X99.27 Y99.637 E108.3708
G1 X98.966 Y99.797 E108.38223
G1 F2700 E103.38223
G0 F6000 X98.678 Y136.599
G1 F2700 E108.38223
G1 F1200 X98.653 Y136.664 E108.38454
G1 X98.627 Y136.702 E108.38607
G1 X98.58 Y136.744 E108.38817
G1 X98.539 Y136.766 E108.38972
G1 X98.475 Y136.781 E108.3919
G1 X98.425 Y136.782 E108.39357
G1 X98.364 Y136.767 E108.39566
G1 X98.32 Y136.744 E108.39731
G1 X98.273 Y136.702 E108.3994
G1 X98.244 Y136.659 E108.40113
G1 X98.222 Y136.603 E108.40313
G1 X98.216 Y136.55 E108.4049
G1 X98.222 Y136.498 E108.40665
G1 X98.245 Y136.439 E108.40875
G1 X98.275 Y136.396 E108.4105
G1 X98.319 Y136.356 E108.41247
G1 X98.362 Y136.334 E108.41408
G1 X98.424 Y136.319 E108.4162
G1 X98.478 Y136.319 E108.418
G1 X98.535 Y136.333 E108.41995
G1 X98.583 Y136.358 E108.42175
G1 X98.624 Y136.394 E108.42356
G1 X98.66 Y136.446 E108.42567
G1 X98.675 Y136.488 E108.42715
G1 X98.683 Y136.553 E108.42933
G1 X98.678 Y136.599 E108.43087
G0 F6000 X98.81 Y137.075
G1 F1200 X98.679 Y137.144 E108.43579
G1 X98.525 Y137.181 E108.44106
G1 X98.375 Y137.182 E108.44605
G1 X98.225 Y137.145 E108.45119
G1 X98.091 Y137.075 E108.45622
G1 X97.973 Y136.97 E108.46147
G1 X97.884 Y136.843 E108.46663
G1 X97.831 Y136.701 E108.47167
G1 X97.813 Y136.552 E108.47666
G1 X97.832 Y136.398 E108.48182
G1 X97.885 Y136.257 E108.48683
G1 X97.975 Y136.128 E108.49206
G1 X98.087 Y136.027 E108.49708
G1 X98.22 Y135.958 E108.50206
G1 X98.376 Y135.919 E108.50741
G1 X98.528 Y135.919 E108.51247
G1 X98.675 Y135.955 E108.5175
G1 X98.809 Y136.025 E108.52253
G1 X98.926 Y136.128 E108.52771
G1 X99.017 Y136.258 E108.53299
G1 X99.066 Y136.389 E108.53764
G1 X99.086 Y136.55 E108.54304
G1 X99.069 Y136.698 E108.54799
G1 X99.011 Y136.849 E108.55337
G1 X98.929 Y136.969 E108.55821
G1 X98.81 Y137.075 E108.56351
G0 F6000 X99.04 Y137.406
G1 F1200 X98.825 Y137.519 E108.57159
G1 X98.572 Y137.581 E108.58025
G1 X98.33 Y137.582 E108.5883
G1 X98.077 Y137.52 E108.59696
G1 X97.864 Y137.408 E108.60497
G1 X97.67 Y137.236 E108.61359
G1 X97.53 Y137.036 E108.62171
G1 X97.44 Y136.794 E108.6303
G1 X97.41 Y136.553 E108.63838
G1 X97.441 Y136.302 E108.64679
